src/lib/packages/icons/src/assets/filled/file-settings.svg

<svg width="24" height="24" viewBox="0 0 24 24" fill="none" xmlns="http://www.w3.org/2000/svg">
<path d="M13.52 14.5C13.52 15.052 13.073 15.5 12.52 15.5C11.968 15.5 11.5149 15.052 11.5149 14.5C11.5149 13.948 11.958 13.5 12.51 13.5H12.52C13.072 13.5 13.52 13.948 13.52 14.5ZM17 8.25H19.25L14.75 3.75V6C14.75 7.58 15.42 8.25 17 8.25ZM20 9.75V18C20 20 19 21 17 21H8C6 21 5 20 5 18V6C5 4 6 3 8 3H13.25V6C13.25 8.42 14.58 9.75 17 9.75H20ZM15.2839 14.502C15.2829 14.084 15.512 13.698 15.885 13.488L16.001 13.423L15.199 12.077L15.084 12.141C14.71 12.35 14.25 12.35 13.877 12.14C13.506 11.931 13.2781 11.547 13.2781 11.131C13.2781 11.059 13.2181 11 13.1431 11H11.8091C11.7351 11 11.6741 11.059 11.6741 11.131C11.6741 11.547 11.446 11.931 11.075 12.14C10.702 12.35 10.2419 12.351 9.86792 12.141C9.80492 12.105 9.72301 12.127 9.68701 12.188L9.01807 13.311C8.98107 13.372 9.00292 13.451 9.06592 13.487L9.06812 13.488C9.43912 13.697 9.66697 14.081 9.66797 14.496C9.66897 14.914 9.44012 15.301 9.06812 15.511L9.06592 15.512C9.00292 15.548 8.98107 15.627 9.01807 15.688L9.68701 16.81C9.72401 16.872 9.8049 16.893 9.8689 16.857C10.2419 16.648 10.702 16.648 11.075 16.858C11.446 17.067 11.6741 17.452 11.6731 17.868C11.6731 17.94 11.7331 17.999 11.8081 17.999H13.144C13.218 17.999 13.2791 17.941 13.2791 17.869C13.2791 17.453 13.5069 17.069 13.8779 16.86C14.2509 16.65 14.711 16.649 15.085 16.859C15.148 16.895 15.2291 16.873 15.2661 16.812L15.9351 15.689C15.9721 15.628 15.95 15.549 15.887 15.513L15.886 15.512C15.513 15.303 15.2839 14.918 15.2839 14.502Z" fill="currentColor"/>
</svg>

<svg xmlns="http://www.w3.org/2000/svg" width="24" height="24" fill="none"><path fill="currentColor" d="M13.52 14.5a1 1 0 0 1-1 1 1.005 1.005 0 0 1-1.005-1c0-.552.443-1 .995-1h.01a1 1 0 0 1 1 1ZM17 8.25h2.25l-4.5-4.5V6c0 1.58.67 2.25 2.25 2.25Zm3 1.5V18c0 2-1 3-3 3H8c-2 0-3-1-3-3V6c0-2 1-3 3-3h5.25v3c0 2.42 1.33 3.75 3.75 3.75h3Zm-4.716 4.752a1.163 1.163 0 0 1 .601-1.014l.116-.065-.802-1.346-.115.064a1.238 1.238 0 0 1-1.207-.001 1.16 1.16 0 0 1-.599-1.009.133.133 0 0 0-.135-.131H11.81a.134.134 0 0 0-.135.131c0 .416-.228.8-.599 1.009-.373.21-.833.211-1.207.001a.135.135 0 0 0-.181.047l-.669 1.123a.127.127 0 0 0 .048.176l.002.001c.371.209.599.593.6 1.008.001.418-.228.805-.6 1.015l-.002.001a.127.127 0 0 0-.048.176l.669 1.122a.135.135 0 0 0 .182.047 1.236 1.236 0 0 1 1.206.001c.371.209.6.594.598 1.01 0 .072.06.131.135.131h1.336a.133.133 0 0 0 .135-.13c0-.416.228-.8.599-1.009.373-.21.833-.211 1.207-.001a.135.135 0 0 0 .181-.047l.67-1.123a.127.127 0 0 0-.049-.176l-.001-.001a1.16 1.16 0 0 1-.602-1.01Z"/></svg>
